src/assets/icons/connect-google.svg

<?xml version="1.0" encoding="UTF-8"?>
<svg width="16px" height="16px" viewBox="0 0 16 16" version="1.1" xmlns="http://www.w3.org/2000/svg" xmlns:xlink="http://www.w3.org/1999/xlink">
    <!-- Generator: Sketch 49.3 (51167) - http://www.bohemiancoding.com/sketch -->
    <title>icons/16/connect-google</title>
    <desc>Created with Sketch.</desc>
    <defs>
        <polygon id="path-1" points="0.00989387755 0.196473469 7.53306122 0.196473469 7.53306122 7.55973878 0.00989387755 7.55973878"/>
        <polygon id="path-3" points="0.179787755 0.166759184 12.3789714 0.166759184 12.3789714 6.53061224 0.179787755 6.53061224"/>
        <polygon id="path-5" points="0 0.0690612245 3.46122449 0.0690612245 3.46122449 7.10253061 0 7.10253061"/>
    </defs>
    <g id="icons/16/connect-google" stroke="none" stroke-width="1" fill="none" fill-rule="evenodd">
        <g id="Page-1" transform="translate(0.300000, 0.000000)">
            <g id="Group-3" transform="translate(7.836735, 6.206988)">
                <mask id="mask-2" fill="white">
                    <use xlink:href="#path-1"/>
                </mask>
                <g id="Clip-2"/>
                <path d="M7.38948571,0.206269388 L0.00989387755,0.206269388 L0.00989387755,3.23647347 L4.22866939,3.23647347 C4.04711837,4.20300408 3.48287347,5.05524898 2.66458776,5.6005551 L5.1952,7.55973878 C6.09707755,6.72088163 6.76352653,5.6603102 7.12826122,4.48382041 C7.55764898,3.09606531 7.64711837,1.62602449 7.38948571,0.196473469 L7.38948571,0.206269388 Z" id="Fill-1" fill="#3E82F1" mask="url(#mask-2)"/>
            </g>
            <g id="Group-6" transform="translate(0.653061, 9.145763)">
                <mask id="mask-4" fill="white">
                    <use xlink:href="#path-3"/>
                </mask>
                <g id="Clip-5"/>
                <path d="M9.84835918,2.66177959 C9.05782857,3.17018776 8.13309388,3.43043265 7.19366531,3.40953469 L7.16101224,3.40953469 C5.72982857,3.38994286 4.38942041,2.70422857 3.53619592,1.55451429 C3.23709388,1.15875918 3.00231837,0.717942857 2.84101224,0.248391837 C2.84101224,0.222595918 2.8181551,0.196473469 2.80803265,0.166759184 L1.03529796,1.55451429 L0.179787755,2.21116735 C0.792032653,3.41933061 1.70501224,4.44953469 2.83121633,5.20218776 C4.11121633,6.06324898 5.6181551,6.52463673 7.16101224,6.52790204 L7.19366531,6.52790204 C9.10060408,6.57949388 10.9556245,5.90096327 12.3789714,4.63075918 L9.84835918,2.66177959 Z" id="Fill-4" fill="#32A753" mask="url(#mask-4)"/>
            </g>
            <g id="Group-9" transform="translate(0.000000, 4.247804)">
                <mask id="mask-6" fill="white">
                    <use xlink:href="#path-5"/>
                </mask>
                <g id="Clip-8"/>
                <path d="M3.46122449,2.10008163 L1.68816327,0.725387755 L0.832653061,0.0690612245 C0.728163265,0.281306122 0.633469388,0.500081633 0.545306122,0.722122449 C-0.181877551,2.56212245 -0.181877551,4.60946939 0.545306122,6.44946939 C0.633469388,6.67477551 0.728163265,6.89355102 0.832653061,7.10253061 L1.67836735,6.44946939 L3.45142857,5.07477551 C3.12489796,4.10889796 3.12489796,3.06269388 3.45142857,2.09681633 L3.46122449,2.10008163 Z" id="Fill-7" fill="#F9BB00" mask="url(#mask-6)"/>
            </g>
            <path d="M7.84675918,0.000163265306 L7.81377959,0.000163265306 C4.85933061,0.00767346939 2.15990204,1.67689796 0.832881633,4.31689796 L1.67826939,4.96995918 L3.45165714,6.34465306 C3.45165714,6.31526531 3.47418776,6.28914286 3.4843102,6.26302041 C3.64561633,5.79379592 3.88039184,5.35297959 4.17982041,4.95689796 C5.03271837,3.8075102 6.3728,3.12179592 7.80398367,3.10220408 L7.83696327,3.10220408 C8.94945306,3.0842449 10.0247184,3.50416327 10.831249,4.27118367 L13.0745143,2.05730612 C11.6619429,0.723755102 9.78896327,-0.0132244898 7.84675918,0.000163265306" id="Fill-10" fill="#E74133"/>
        </g>
    </g>
</svg>

<svg width="16" height="16" xmlns="http://www.w3.org/2000/svg" xmlns:xlink="http://www.w3.org/1999/xlink">
  <defs>
    <path id="a" d="M.01.196h7.523V7.56H.01z"/>
    <path id="c" d="M.18.167h12.199V6.53H.179z"/>
    <path id="e" d="M0 .07h3.461v7.033H0z"/>
  </defs>
  <g fill="none" fill-rule="evenodd">
    <g transform="translate(8.137 6.207)">
      <mask id="b" fill="#fff">
        <use xlink:href="#a"/>
      </mask>
      <path d="M7.39.206H.01v3.03h4.219a3.651 3.651 0 0 1-1.564 2.365l2.53 1.959a7.053 7.053 0 0 0 1.933-3.076A9.064 9.064 0 0 0 7.39.196v.01z" fill="#3E82F1" mask="url(#b)"/>
    </g>
    <g transform="translate(.953 9.146)">
      <mask id="d" fill="#fff">
        <use xlink:href="#c"/>
      </mask>
      <path d="M9.848 2.662a4.714 4.714 0 0 1-2.654.748H7.16a4.592 4.592 0 0 1-3.625-1.855A4.698 4.698 0 0 1 2.841.248c0-.025-.023-.052-.033-.081L1.035 1.555.18 2.21A7.883 7.883 0 0 0 2.83 5.202a7.787 7.787 0 0 0 4.33 1.326h.033a7.484 7.484 0 0 0 5.185-1.897l-2.53-1.97z" fill="#32A753" mask="url(#d)"/>
    </g>
    <g transform="translate(.3 4.248)">
      <mask id="f" fill="#fff">
        <use xlink:href="#e"/>
      </mask>
      <path d="M3.461 2.1L1.688.725.833.07C.728.281.633.5.545.722a7.79 7.79 0 0 0 0 5.727c.088.226.183.445.288.654l.845-.654 1.773-1.374a4.649 4.649 0 0 1 0-2.978l.01.003z" fill="#F9BB00" mask="url(#f)"/>
    </g>
    <path d="M8.147 0h-.033a7.836 7.836 0 0 0-6.981 4.317l.845.653 1.774 1.375c0-.03.022-.056.032-.082a4.7 4.7 0 0 1 .696-1.306 4.591 4.591 0 0 1 3.624-1.855h.033a4.246 4.246 0 0 1 2.994 1.17l2.244-2.215A7.54 7.54 0 0 0 8.147 0" fill="#E74133"/>
  </g>
</svg>
